fa/svgs/regular/star-half.svg

<svg xmlns="http://www.w3.org/2000/svg" viewBox="0 0 576 512"><!--! Font Awesome Free 6.1.1 by @fontawesome - https://fontawesome.com License - https://fontawesome.com/license/free (Icons: CC BY 4.0, Fonts: SIL OFL 1.1, Code: MIT License) Copyright 2022 Fonticons, Inc.--><path d="M293.3.612C304.2 3.118 311.9 12.82 311.9 24v384.7c0 8.8-4.8 17-12.7 21.1l-149.1 79.3c-7.2 4.3-17 3.6-24.5-1.7-7.4-5.3-11.1-15.3-10.5-23.5l27.1-155.5L31.11 218.3c-6.46-6.4-8.75-15.9-5.91-24.6 2.83-8.6 10.3-14.9 19.29-16.2l153.21-22.7 68.6-141.28c4.9-10.06 16.1-15.413 27-12.907zM263.9 128.4l-28.5 58.8c-3.5 7.1-10.3 12.1-18.1 13.3L98.98 217.9 184.9 303c5.5 5.5 8 13.4 6.7 21.1l-20.2 119.6 92.5-49.4V128.4z"/></svg>

<svg xmlns="http://www.w3.org/2000/svg" viewBox="0 0 576 512"><!--! Font Awesome Free 6.2.1 by @fontawesome - https://fontawesome.com License - https://fontawesome.com/license/free (Icons: CC BY 4.0, Fonts: SIL OFL 1.1, Code: MIT License) Copyright 2022 Fonticons, Inc. --><path d="M293.3 .6123C304.2 3.118 311.9 12.82 311.9 24V408.7C311.9 417.5 307.1 425.7 299.2 429.8L150.1 509.1C142.9 513.4 133.1 512.7 125.6 507.4C118.2 502.1 114.5 492.1 115.1 483.9L142.2 328.4L31.11 218.3C24.65 211.9 22.36 202.4 25.2 193.7C28.03 185.1 35.5 178.8 44.49 177.5L197.7 154.8L266.3 13.52C271.2 3.46 282.4-1.893 293.3 .6127L293.3 .6123zM263.9 128.4L235.4 187.2C231.9 194.3 225.1 199.3 217.3 200.5L98.98 217.9L184.9 303C190.4 308.5 192.9 316.4 191.6 324.1L171.4 443.7L263.9 394.3L263.9 128.4z"/></svg>
